src/Pure/16/symbolic/actions/keyboard-enter-symbolic.svg

<?xml version="1.0" encoding="UTF-8" standalone="no"?>
<svg
   width="16"
   height="16"
   version="1.1"
   viewBox="0 0 16 16"
   id="svg1"
   sodipodi:docname="keyboard-enter-symbolic.svg"
   inkscape:version="1.4.2 (ebf0e940d0, 2025-05-08)"
   xmlns:inkscape="http://www.inkscape.org/namespaces/inkscape"
   xmlns:sodipodi="http://sodipodi.sourceforge.net/DTD/sodipodi-0.dtd"
   xmlns="http://www.w3.org/2000/svg"
   xmlns:svg="http://www.w3.org/2000/svg">
  <defs
     id="defs1">
     <style
        id="current-color-scheme"
        type="text/css">
        .ColorScheme-Text { color:#363636; }
        .ColorScheme-NegativeText { color:#da4453; }
     </style>
  </defs>
  <sodipodi:namedview
     id="namedview1"
     pagecolor="#ffffff"
     bordercolor="#000000"
     borderopacity="0.25"
     inkscape:showpageshadow="2"
     inkscape:pageopacity="0.0"
     inkscape:pagecheckerboard="0"
     inkscape:deskcolor="#d1d1d1"
     inkscape:zoom="49.6875"
     inkscape:cx="8"
     inkscape:cy="8"
     inkscape:window-width="1920"
     inkscape:window-height="1010"
     inkscape:window-x="0"
     inkscape:window-y="0"
     inkscape:window-maximized="1"
     inkscape:current-layer="svg1" />
  <path
     id="path1"
     style="fill:currentColor"
     class="ColorScheme-Text"
     d="M 13 5 L 13 7 C 13 8.108 12.108 9 11 9 L 3.7050781 9 L 5.6816406 7.0234375 C 5.8775106 6.8275675 5.8775106 6.5122762 5.6816406 6.3164062 C 5.5837066 6.2184722 5.455935 6.1699219 5.328125 6.1699219 C 5.200315 6.1699219 5.0725494 6.2184762 4.9746094 6.3164062 L 2.1464844 9.1445312 C 1.9995844 9.2914313 1.9636594 9.5050269 2.0371094 9.6855469 L 2.0371094 9.6875 C 2.0615914 9.74712 2.0979134 9.8030025 2.1464844 9.8515625 L 4.9746094 12.681641 C 5.1704794 12.877511 5.4857706 12.877511 5.6816406 12.681641 C 5.8775106 12.485771 5.8775106 12.170479 5.6816406 11.974609 L 3.7089844 10 L 11 10 C 12.662 10 14 8.662 14 7 L 14 5 L 13 5 z " />
</svg>

<svg width="16" height="16" version="1.1" viewBox="0 0 16 16" xmlns="http://www.w3.org/2000/svg">
 <path d="m13 5v2c0 1.108-0.892 2-2 2h-7.2949l1.9766-1.9766c0.19587-0.19587 0.19587-0.51116 0-0.70703-0.097934-0.097934-0.22571-0.14648-0.35352-0.14648s-0.25558 0.04855-0.35352 0.14648l-2.8281 2.8281c-0.1469 0.1469-0.18283 0.3605-0.10938 0.54102v0.00195c0.024482 0.05962 0.060809 0.1155 0.10938 0.16406l2.8281 2.8301c0.19587 0.19587 0.51116 0.19587 0.70703 0 0.19587-0.19587 0.19587-0.51116 0-0.70703l-1.9727-1.9746h7.291c1.662 0 3-1.338 3-3v-2z" fill="#363636"/>
</svg>
